SVG_Azure_All/Load Balancer Backend Frontend IP Configuration.svg

<?xml version="1.0" encoding="UTF-8" standalone="no"?>
<!-- Generated by Microsoft Visio, SVG Export Load Balancer Backend Frontend IP Configuration.svg Page-1 -->

<svg
   xmlns:dc="http://purl.org/dc/elements/1.1/"
   xmlns:cc="http://creativecommons.org/ns#"
   xmlns:rdf="http://www.w3.org/1999/02/22-rdf-syntax-ns#"
   xmlns:svg="http://www.w3.org/2000/svg"
   xmlns="http://www.w3.org/2000/svg"
   xmlns:sodipodi="http://sodipodi.sourceforge.net/DTD/sodipodi-0.dtd"
   xmlns:inkscape="http://www.inkscape.org/namespaces/inkscape"
   width="0.78735936in"
   height="0.62991387in"
   viewBox="0 0 56.689782 45.353896"
   xml:space="preserve"
   class="st4"
   version="1.1"
   id="svg54"
   sodipodi:docname="Load Balancer Backend Frontend IP Configuration.svg"
   style="font-size:12px;overflow:visible;color-interpolation-filters:sRGB;fill:none;fill-rule:evenodd;stroke-linecap:square;stroke-miterlimit:3"
   inkscape:version="0.92.5 (2060ec1f9f, 2020-04-08)"><metadata
   id="metadata58"><rdf:RDF><cc:Work
       rdf:about=""><dc:format>image/svg+xml</dc:format><dc:type
         rdf:resource="http://purl.org/dc/dcmitype/StillImage" /></cc:Work></rdf:RDF></metadata><sodipodi:namedview
   pagecolor="#ffffff"
   bordercolor="#666666"
   borderopacity="1"
   objecttolerance="10"
   gridtolerance="10"
   guidetolerance="10"
   inkscape:pageopacity="0"
   inkscape:pageshadow="2"
   inkscape:window-width="640"
   inkscape:window-height="480"
   id="namedview56"
   showgrid="false"
   inkscape:zoom="1.5612629"
   inkscape:cx="37.795252"
   inkscape:cy="30.225663"
   inkscape:window-x="0"
   inkscape:window-y="0"
   inkscape:window-maximized="0"
   inkscape:current-layer="svg54" />
	<style
   type="text/css"
   id="style2">
	<![CDATA[
		.st1 {fill:url(#grad0-6);stroke:none;stroke-linecap:butt;stroke-width:34}
		.st2 {fill:#767676;stroke:none;stroke-linecap:butt;stroke-width:34}
		.st3 {fill:#f2f2f2;stroke:none;stroke-linecap:butt;stroke-width:34}
		.st4 {fill:none;fill-rule:evenodd;font-size:12px;overflow:visible;stroke-linecap:square;stroke-miterlimit:3}
	]]>
	</style>

	<defs
   id="Patterns_And_Gradients">
		<linearGradient
   id="grad0-6"
   x1="0"
   y1="104.3574"
   x2="43.474643"
   y2="104.3574"
   gradientTransform="scale(1.3039785,0.76688381)"
   gradientUnits="userSpaceOnUse">
			<stop
   offset="0"
   stop-color="#32bedd"
   stop-opacity="1"
   id="stop4" />
			<stop
   offset="0.18"
   stop-color="#32caea"
   stop-opacity="1"
   id="stop6" />
			<stop
   offset="0.41"
   stop-color="#32d2f2"
   stop-opacity="1"
   id="stop8" />
			<stop
   offset="0.78"
   stop-color="#32d4f5"
   stop-opacity="1"
   id="stop10" />
		</linearGradient>
	</defs>
	<g
   id="g52"
   transform="translate(-34.000237,-34.0004)">
		<title
   id="title14">Page-1</title>
		<g
   id="group3428-1"
   transform="translate(34,-34.0157)">
			<title
   id="title16">Load Balancer Backend Frontend IP Configuration</title>
			<g
   id="group3429-2">
				<title
   id="title18">Sheet.3429</title>
				<g
   id="shape3430-3">
					<title
   id="title20">Sheet.3430</title>
					<path
   d="m 0,80.03 h 56.69 v 31.45 a 1.90088,1.89115 0 0 1 -1.9,1.89 H 1.9 A 1.90088,1.89115 0 0 1 0,111.48 Z"
   class="st1"
   id="path22"
   inkscape:connector-curvature="0"
   style="fill:url(#grad0-6);stroke:none;stroke-width:34;stroke-linecap:butt" />
				</g>
				<g
   id="shape3431-7"
   transform="translate(0,-33.3439)">
					<title
   id="title25">Sheet.3431</title>
					<path
   d="m 1.9,101.36 h 52.89 a 1.90088,1.89115 0 0 1 1.9,1.89 v 10.12 H 0 v -10.15 a 1.90088,1.89115 0 0 1 1.9,-1.86 z"
   class="st2"
   id="path27"
   inkscape:connector-curvature="0"
   style="fill:#767676;stroke:none;stroke-width:34;stroke-linecap:butt" />
				</g>
				<g
   id="shape3432-9"
   transform="translate(36.4836,-14.167)">
					<title
   id="title30">Sheet.3432</title>
					<ellipse
   cx="4.6021299"
   cy="108.792"
   rx="4.6021299"
   ry="4.5785599"
   class="st3"
   id="ellipse32"
   style="fill:#f2f2f2;stroke:none;stroke-width:34;stroke-linecap:butt" />
				</g>
				<g
   id="shape3433-11"
   transform="translate(23.9444,-14.167)">
					<title
   id="title35">Sheet.3433</title>
					<ellipse
   cx="4.6021299"
   cy="108.792"
   rx="4.6021299"
   ry="4.5785599"
   class="st3"
   id="ellipse37"
   style="fill:#f2f2f2;stroke:none;stroke-width:34;stroke-linecap:butt" />
				</g>
				<g
   id="shape3434-13"
   transform="translate(11.0051,-14.167)">
					<title
   id="title40">Sheet.3434</title>
					<ellipse
   cx="4.6021299"
   cy="108.792"
   rx="4.6021299"
   ry="4.5785599"
   class="st3"
   id="ellipse42"
   style="fill:#f2f2f2;stroke:none;stroke-width:34;stroke-linecap:butt" />
				</g>
				<g
   id="shape3435-15"
   transform="translate(7.63687,-36.9271)">
					<title
   id="title45">Sheet.3435</title>
					<path
   d="m 0,112.44 a 0.933787,0.929006 -180 0 0 0.933766,0.92898 L 40.52,113.37 a 0.933787,0.929006 -180 0 0 0.933766,-0.92898 L 41.45,109.46 a 0.933787,0.929006 -180 0 0 -0.933766,-0.92898 L 0.93,108.53 a 0.933787,0.929006 -180 0 0 -0.933766,0.92898 z"
   class="st3"
   id="path47"
   inkscape:connector-curvature="0"
   style="fill:#f2f2f2;stroke:none;stroke-width:34;stroke-linecap:butt" />
				</g>
			</g>
		</g>
	</g>
</svg>

<?xml version="1.0" encoding="UTF-8" standalone="no"?>
<!DOCTYPE svg PUBLIC "-//W3C//DTD SVG 1.1//EN" "http://www.w3.org/Graphics/SVG/1.1/DTD/svg11.dtd">
<!-- Generated by Microsoft Visio, SVG Export Load Balancer Backend Frontend IP Configuration.svg Page-1 -->
<svg xmlns="http://www.w3.org/2000/svg" xmlns:xlink="http://www.w3.org/1999/xlink" xmlns:ev="http://www.w3.org/2001/xml-events"
		width="1.73185in" height="1.57458in" viewBox="0 0 124.693 113.37" xml:space="preserve" color-interpolation-filters="sRGB"
		class="st4">
	<style type="text/css">
	<![CDATA[
		.st1 {fill:url(#grad0-6);stroke:none;stroke-linecap:butt;stroke-width:34}
		.st2 {fill:#767676;stroke:none;stroke-linecap:butt;stroke-width:34}
		.st3 {fill:#f2f2f2;stroke:none;stroke-linecap:butt;stroke-width:34}
		.st4 {fill:none;fill-rule:evenodd;font-size:12px;overflow:visible;stroke-linecap:square;stroke-miterlimit:3}
	]]>
	</style>

	<defs id="Patterns_And_Gradients">
		<linearGradient id="grad0-6" x1="0" y1="0" x2="1" y2="0" gradientTransform="rotate(-90 0.5 0.5)">
			<stop offset="0" stop-color="#32bedd" stop-opacity="1"/>
			<stop offset="0.18" stop-color="#32caea" stop-opacity="1"/>
			<stop offset="0.41" stop-color="#32d2f2" stop-opacity="1"/>
			<stop offset="0.78" stop-color="#32d4f5" stop-opacity="1"/>
		</linearGradient>
	</defs>
	<g>
		<title>Page-1</title>
		<g id="group3376-1" transform="translate(34,-34.0157)">
			<title>Load Balancer Backend Frontend IP Configuration</title>
			<g id="group3377-2">
				<title>Sheet.3377</title>
				<g id="shape3378-3">
					<title>Sheet.3378</title>
					<path d="M0 80.03 L56.69 80.03 L56.69 111.48 A1.90088 1.89115 0 0 1 54.79 113.37 L1.9 113.37 A1.90088 1.89115
								 0 0 1 0 111.48 L0 80.03 Z" class="st1"/>
				</g>
				<g id="shape3379-7" transform="translate(0,-33.3439)">
					<title>Sheet.3379</title>
					<path d="M1.9 101.36 L54.79 101.36 A1.90088 1.89115 0 0 1 56.69 103.25 L56.69 113.37 L0 113.37 L0 103.22 A1.90088
								 1.89115 0 0 1 1.9 101.36 Z" class="st2"/>
				</g>
				<g id="shape3380-9" transform="translate(36.4836,-14.167)">
					<title>Sheet.3380</title>
					<ellipse cx="4.60213" cy="108.792" rx="4.60213" ry="4.57856" class="st3"/>
				</g>
				<g id="shape3381-11" transform="translate(23.9444,-14.167)">
					<title>Sheet.3381</title>
					<ellipse cx="4.60213" cy="108.792" rx="4.60213" ry="4.57856" class="st3"/>
				</g>
				<g id="shape3382-13" transform="translate(11.0051,-14.167)">
					<title>Sheet.3382</title>
					<ellipse cx="4.60213" cy="108.792" rx="4.60213" ry="4.57856" class="st3"/>
				</g>
				<g id="shape3383-15" transform="translate(7.63687,-36.9271)">
					<title>Sheet.3383</title>
					<path d="M0 112.44 a0.933787 0.929006 -180 0 0 0.933766 0.928984 L40.52 113.37 a0.933787 0.929006 -180 0 0 0.933766
								 -0.928984 L41.45 109.46 a0.933787 0.929006 -180 0 0 -0.933766 -0.928984 L0.93 108.53 a0.933787 0.929006
								 -180 0 0 -0.933766 0.928984 L0 112.44 Z" class="st3"/>
				</g>
			</g>
		</g>
	</g>
</svg>
